X:68
T:Bon voyage Monsieur Dumollet
O:France
A:Provence ?
C:Trad.
R:Farandole
M:6/8
Q:3/8=90
K:Fmajor
f2c|:A2c cde|f3 fed|[1 cdc BAG|A2F f2c:|[2 cdc cde|f3 ||
F2A ccc cdc|A2F ddd|dcd fed|c3 F2A|ccc cdc|A2F fed|cdc BAG|F3 f2c|]
<end>
<start>
